X: 42419
T: West End, The
R: hornpipe
M: 4/4
K: Dmajor
|:A2|(3FED F>A d2 d2|(3Bcd e>f g2 g2|f>af>d (3efg e>d|(3cdc A2 A>BA>G|
(3FED F>A d2 d2|(3Bcd e>f g2 g2|f>af>d (3efg e>c|d2 d2 d2:|
|:f>g|a>fd>f a>fd>f|b>ge>g b>ge>g|a>fd>f a>fd>f|e2 A2 A>BA>G|
(3FED F>A d2 d2|(3Bcd e>f g2 g2|f>af>d (3efg e>c|d2 d2 d2:|

